X: 8
T: The Frieze Breeches
R: jig
M: 6/8
L: 1/8
K: Dmaj
A2 B c2 B | c2 d cAG | ~A2 d dcd | (3.g.f.e .d cAG |~A2 B cAG | dcB {d/}cAG | F.A.A {A/}GE{B/}A | ~D3 {A/}D3 :|


Tune 34	Setting 12434

